X: 176
T: A Favourite Duet By Mr Holmes
R: polka
M: 2/4
K: Gmajor
|:GG/A/ B/A/B/c/|dg d2|egdg|cBBA|
GG/A/ B/A/B/c/|dg dc/B/|c/B/A/G/ DF|G4:|
gg/d/ Bd|gg/d/ Bd|ee/d/ c/B/A/G/|AD D2|
gg/d/ Bd|gg/d/ Bd|ee/d/ c/B/A/G/|A2 D2|
GG/A/ B/A/B/c/|dg d2|egdg|cBBA|
GG/A/ B/A/B/c/|dg d/c/B/A/|c/B/A/G/ DF|G4:|

